X: 7758
T: Colville's Rant
R: reel
M: 4/4
K: Amixolydian
|:a|cAeA cAAg|BGdG BGGa|cAeA cAAe|dBGB eAA:|
|:B|A2 ag aeef|g2 fg dBGB|A2 ag aeea|gedB A2 AB|
A2 ag aeef|gage dBGB|ABcd ec c2|dBGB eAA||

